X:1
T:Ave Caesar - Epic Strings
M:4/4
L:1/4
Q:1/4=95
K:Dm
%%MIDI program 48
% Bars 101-125: Soaring, powerful string section
% Full sustained glory
[D,A,D]4 | [D,A,D]4 | [D,A,F]2 [F,A,A]2 | [D,A,D]4 |
[G,,D,G,]4 | [G,,D,B,]4 | [A,,E,A,]4 | [A,,E,C]4 |
[D,A,D]4 | [D,A,D]4 | [D,A,F]2 [F,A,A]2 | [D,A,d]4 |
[B,,F,D]4 | [C,G,E]4 | [D,A,D]4 | [D,A,F]4 |
[D,A,D]4 | [G,,D,G,]4 | [A,,E,A,]4 | [D,A,D]4 |
[D,A,D]4 | [D,A,F]2 [G,,D,G,]2 | [A,,E,A,]4 | [D,A,D]4 |
[D,A,D]4 |
